Numix-Light/16/status/indicator-keyboard-He-4.svg

<?xml version="1.0" encoding="UTF-8" standalone="no"?>
<svg
   xmlns:dc="http://purl.org/dc/elements/1.1/"
   xmlns:cc="http://creativecommons.org/ns#"
   xmlns:rdf="http://www.w3.org/1999/02/22-rdf-syntax-ns#"
   xmlns:svg="http://www.w3.org/2000/svg"
   xmlns="http://www.w3.org/2000/svg"
   xmlns:sodipodi="http://sodipodi.sourceforge.net/DTD/sodipodi-0.dtd"
   xmlns:inkscape="http://www.inkscape.org/namespaces/inkscape"
   viewBox="0 0 16 16"
   id="svg2"
   version="1.1"
   inkscape:version="0.91 r13725"
   sodipodi:docname="indicator-keyboard-He-4.svg">
  <metadata
     id="metadata14">
    <rdf:RDF>
      <cc:Work
         rdf:about="">
        <dc:format>image/svg+xml</dc:format>
        <dc:type
           rdf:resource="http://purl.org/dc/dcmitype/StillImage" />
      </cc:Work>
    </rdf:RDF>
  </metadata>
  <defs
     id="defs12" />
  <sodipodi:namedview
     pagecolor="#ffffff"
     bordercolor="#666666"
     borderopacity="1"
     objecttolerance="10"
     gridtolerance="10"
     guidetolerance="10"
     inkscape:pageopacity="0"
     inkscape:pageshadow="2"
     inkscape:window-width="459"
     inkscape:window-height="369"
     id="namedview10"
     showgrid="false"
     inkscape:zoom="14.75"
     inkscape:cx="8"
     inkscape:cy="8"
     inkscape:window-x="65"
     inkscape:window-y="24"
     inkscape:window-maximized="0"
     inkscape:current-layer="svg2" />
  <path
     style="fill:#353535;fill-opacity:1"
     d="M 1.5996094 0 C 0.71320937 2.9605947e-16 0 0.71320937 0 1.5996094 L 0 14.400391 C 2.9605947e-16 15.286791 0.71320937 16 1.5996094 16 L 14.400391 16 C 15.286791 16 16 15.286791 16 14.400391 L 16 1.5996094 C 16 0.71320937 15.286791 0 14.400391 0 L 1.5996094 0 z M 1.3203125 4.859375 L 1.9316406 4.859375 L 1.9316406 7.5683594 L 5.3164062 7.5683594 L 5.3164062 4.859375 L 5.9277344 4.859375 L 5.9277344 11.095703 L 5.3164062 11.095703 L 5.3164062 8.0996094 L 1.9316406 8.0996094 L 1.9316406 11.095703 L 1.3203125 11.095703 L 1.3203125 4.859375 z M 9.2617188 6.3359375 C 9.8317191 6.3359375 10.285094 6.5205781 10.621094 6.8925781 C 10.963094 7.2645781 11.134766 7.8373281 11.134766 8.6113281 C 11.134766 8.6593281 11.131 8.7078594 11.125 8.7558594 C 11.125 8.8038594 11.121234 8.848625 11.115234 8.890625 L 7.8496094 8.890625 C 7.8676094 9.460625 8.0074844 9.8990779 8.2714844 10.205078 C 8.5354844 10.511078 8.95525 10.664062 9.53125 10.664062 C 9.8492503 10.664062 10.103063 10.634219 10.289062 10.574219 C 10.475063 10.514219 10.609359 10.463875 10.693359 10.421875 L 10.800781 10.925781 C 10.716781 10.973781 10.558219 11.029703 10.324219 11.095703 C 10.096218 11.161703 9.8256719 11.195312 9.5136719 11.195312 C 9.1056719 11.195312 8.7587031 11.135625 8.4707031 11.015625 C 8.1827031 10.895625 7.9457656 10.727719 7.7597656 10.511719 C 7.5737656 10.295719 7.4375156 10.040094 7.3535156 9.7460938 C 7.2695156 9.4460938 7.2285156 9.119625 7.2285156 8.765625 C 7.2285156 8.357625 7.2844375 8.003125 7.3984375 7.703125 C 7.5184375 7.397125 7.6714219 7.1415 7.8574219 6.9375 C 8.0494219 6.7335 8.2658594 6.5842812 8.5058594 6.4882812 C 8.7518594 6.3862812 9.0037187 6.3359375 9.2617188 6.3359375 z M 9.2714844 6.8574219 C 9.0614844 6.8574219 8.8730781 6.8984219 8.7050781 6.9824219 C 8.5430781 7.0664219 8.3974844 7.1802188 8.2714844 7.3242188 C 8.1514844 7.4622187 8.056375 7.6245469 7.984375 7.8105469 C 7.918375 7.9965469 7.8791875 8.1924844 7.8671875 8.3964844 L 10.53125 8.3964844 C 10.51925 7.9104844 10.405453 7.5317187 10.189453 7.2617188 C 9.9734528 6.9917187 9.6674844 6.8574219 9.2714844 6.8574219 z M 13.779297 8.8417969 L 14.175781 8.8417969 L 14.175781 11.486328 L 14.679688 11.486328 L 14.679688 11.796875 L 14.175781 11.796875 L 14.175781 12.896484 L 13.802734 12.896484 L 13.802734 11.796875 L 11.964844 11.796875 L 11.964844 11.5625 C 12.035044 11.3753 12.133012 11.163688 12.257812 10.929688 C 12.386513 10.695687 12.531506 10.456638 12.691406 10.210938 C 12.851306 9.9652374 13.023738 9.7261874 13.210938 9.4921875 C 13.398137 9.2542875 13.588197 9.0367969 13.779297 8.8417969 z M 13.802734 9.2695312 C 13.666234 9.4099312 13.527119 9.5706063 13.386719 9.7539062 C 13.246319 9.9372063 13.111122 10.129225 12.982422 10.328125 C 12.857623 10.523125 12.742012 10.719069 12.632812 10.917969 C 12.523613 11.116869 12.431522 11.306928 12.357422 11.486328 L 13.802734 11.486328 L 13.802734 9.2695312 z "
     id="path4" />
</svg>

<svg xmlns="http://www.w3.org/2000/svg" viewBox="0 0 16 16">
 <path d="m 1.6 0 c -0.886 0 -1.6 0.713 -1.6 1.6 l 0 12.801 c 0 0.886 0.713 1.6 1.6 1.6 l 12.801 0 c 0.886 0 1.6 -0.713 1.6 -1.6 l 0 -12.801 c 0 -0.886 -0.713 -1.6 -1.6 -1.6 l -12.801 0 z m -0.279 4.859 l 0.611 0 l 0 2.709 l 3.385 0 l 0 -2.709 l 0.611 0 l 0 6.236 l -0.611 0 l 0 -2.996 l -3.385 0 l 0 2.996 l -0.611 0 l 0 -6.236 z m 7.941 1.477 c 0.57 0 1.023 0.185 1.359 0.557 c 0.342 0.372 0.514 0.945 0.514 1.719 c 0 0.048 -0.004 0.097 -0.01 0.145 c 0 0.048 -0.004 0.093 -0.01 0.135 l -3.266 0 c 0.018 0.57 0.158 1.01 0.422 1.314 c 0.264 0.306 0.684 0.459 1.26 0.459 c 0.318 0 0.572 -0.03 0.758 -0.09 c 0.186 -0.06 0.32 -0.11 0.404 -0.152 l 0.107 0.504 c -0.084 0.048 -0.243 0.104 -0.477 0.17 c -0.228 0.066 -0.499 0.1 -0.811 0.1 c -0.408 0 -0.755 -0.06 -1.043 -0.18 c -0.288 -0.12 -0.525 -0.288 -0.711 -0.504 c -0.186 -0.216 -0.322 -0.472 -0.406 -0.766 c -0.084 -0.3 -0.125 -0.626 -0.125 -0.98 c 0 -0.408 0.056 -0.762 0.17 -1.063 c 0.12 -0.306 0.273 -0.562 0.459 -0.766 c 0.192 -0.204 0.408 -0.353 0.648 -0.449 c 0.246 -0.102 0.498 -0.152 0.756 -0.152 z m 0.01 0.521 c -0.21 0 -0.398 0.041 -0.566 0.125 c -0.162 0.084 -0.308 0.198 -0.434 0.342 c -0.12 0.138 -0.215 0.3 -0.287 0.486 c -0.066 0.186 -0.105 0.382 -0.117 0.586 l 2.664 0 c -0.012 -0.486 -0.126 -0.865 -0.342 -1.135 c -0.216 -0.27 -0.522 -0.404 -0.918 -0.404 z m 4.508 1.984 l 0.396 0 l 0 2.645 l 0.504 0 l 0 0.311 l -0.504 0 l 0 1.1 l -0.373 0 l 0 -1.1 l -1.838 0 l 0 -0.234 c 0.07 -0.187 0.168 -0.399 0.293 -0.633 c 0.129 -0.234 0.274 -0.473 0.434 -0.719 c 0.16 -0.246 0.332 -0.485 0.52 -0.719 c 0.187 -0.238 0.377 -0.455 0.568 -0.65 z m 0.023 0.428 c -0.136 0.14 -0.276 0.301 -0.416 0.484 c -0.14 0.183 -0.276 0.375 -0.404 0.574 c -0.125 0.195 -0.24 0.391 -0.35 0.59 c -0.109 0.199 -0.201 0.389 -0.275 0.568 l 1.445 0 l 0 -2.217 z" style="fill:#353535;fill-opacity:1"/>
</svg>
